icons/op-delete-24.svg

<svg width="24" height="24" viewBox="0 0 24 24" fill="none" xmlns="http://www.w3.org/2000/svg">
<path d="M16.5977 7.21875H7.4023C7.4023 7.25 7.37356 7.28125 7.37356 7.3125V18.9375C7.37356 19.5312 7.71839 20 8.12069 20H15.8506C16.2816 20 16.6264 19.5312 16.6264 18.9375V7.3125C16.6264 7.28125 16.5977 7.25 16.5977 7.21875ZM9.75862 18.1875C9.75862 18.5938 9.52874 18.9375 9.24138 18.9375C8.95402 18.9375 8.72414 18.5938 8.72414 18.1875V9.34375C8.72414 8.9375 8.95402 8.59375 9.24138 8.59375C9.52874 8.59375 9.75862 8.9375 9.75862 9.34375V18.1875ZM12.546 18.1875C12.546 18.5938 12.3161 18.9375 12.0575 18.9375C11.7701 18.9375 11.5402 18.5938 11.5402 18.1875V9.34375C11.5402 8.9375 11.7701 8.59375 12.0575 8.59375C12.3161 8.59375 12.546 8.9375 12.546 9.34375V18.1875ZM15.2759 18.1875C15.2759 18.5938 15.046 18.9375 14.7586 18.9375C14.4713 18.9375 14.2414 18.5938 14.2414 18.1875V9.34375C14.2414 8.9375 14.4713 8.59375 14.7586 8.59375C15.046 8.59375 15.2759 8.9375 15.2759 9.34375V18.1875ZM17 6.15625C17 5.75 16.7126 5.4375 16.3391 5.4375H7.66092C7.28736 5.4375 7 5.75 7 6.15625C7 6.34375 7.08621 6.5 7.17241 6.65625H16.8276C16.9138 6.5 17 6.34375 17 6.15625ZM11.4828 4.75H12.5172C12.7184 4.75 12.8621 4.59375 12.8621 4.375C12.8621 4.15625 12.7184 4 12.5172 4H11.4828C11.2816 4 11.1379 4.15625 11.1379 4.375C11.1379 4.59375 11.2816 4.75 11.4828 4.75Z" fill="black"/>
</svg>

<svg xmlns="http://www.w3.org/2000/svg" width="24" height="24" viewBox="0 0 24 24"><path d="M16.598 7.219H7.402c0 .031-.028.062-.028.093v11.626c0 .593.344 1.062.747 1.062h7.73c.431 0 .775-.469.775-1.062V7.312c0-.031-.028-.062-.028-.093ZM9.759 18.188c0 .406-.23.75-.518.75-.287 0-.517-.344-.517-.75V9.344c0-.406.23-.75.517-.75.288 0 .518.344.518.75v8.844Zm2.787 0c0 .406-.23.75-.489.75-.287 0-.517-.344-.517-.75V9.344c0-.406.23-.75.517-.75.259 0 .489.344.489.75v8.844Zm2.73 0c0 .406-.23.75-.517.75-.288 0-.518-.344-.518-.75V9.344c0-.406.23-.75.518-.75.287 0 .517.344.517.75v8.844ZM17 6.156c0-.406-.287-.718-.661-.718H7.661c-.374 0-.661.312-.661.718 0 .188.086.344.172.5h9.656c.086-.156.172-.312.172-.5ZM11.483 4.75h1.034c.201 0 .345-.156.345-.375S12.718 4 12.517 4h-1.034c-.201 0-.345.156-.345.375s.144.375.345.375Z"/></svg>
